Ironsworn-Starforged/src/app/img/icons/asset-heavy-cannons.svg

<svg xmlns="http://www.w3.org/2000/svg" xmlns:svg="http://www.w3.org/2000/svg" fill-rule="evenodd" stroke-miterlimit="10" clip-rule="evenodd" viewBox="0 0 64.353996 74.309402" xml:space="preserve"><g transform="translate(-3.8229 -3.3453003)"><clipPath id="a"><path d="M4.823 22.5v36L36 76.5l31.177-18v-36L36 4.5Z" clip-rule="nonzero"/></clipPath><g clip-path="url(#a)"><path fill="#7f5a90" fill-rule="nonzero" d="M67.1769 58.7059v-36l-31.177-18-31.177 18v36l31.177 18z" opacity=".3"/><path fill="#fff" fill-rule="nonzero" stroke="#231f20" stroke-width="2" d="M20.7316 58.7374h8.746v-3.728c0-.552-.447-1-1-1h-6.746c-.552 0-1 .448-1 1Z"/><path fill="#fff" fill-rule="nonzero" stroke="#231f20" d="m20.0657 4.9706-2.319 37.525c0 4.063 3.295 7.357 7.358 7.357 4.064 0 7.358-3.294 7.358-7.357l-2.319-37.525Z"/><path fill="#231f20" fill-rule="nonzero" d="m25.6048 4.9706-.5 25.016-.5-25.016Zm2.1994-.0177.5 28.214-1.499-28.179Zm-4.3995.0354-1.5 28.179.501-28.214Z"/><path fill="#fff" fill-rule="nonzero" stroke="#231f20" stroke-width="2" d="M19.1765 76.0746h11.857v-16.073l-2.774-1.364h-6.309l-2.774 1.364Zm-6.1702 23.6422h20.398v-23.642h-17.398c0 1.657-1.343 3-3 3Z"/><path fill="none" stroke="#231f20" stroke-linecap="round" stroke-linejoin="round" d="m19.1765 63.7157 2.774-1.363h1.631m-4.405 4.0897 2.774-1.363h1.631m7.4515-1.3637-2.774-1.363h-1.631m4.405 4.0897-2.774-1.363h-1.631"/><path fill="#fff" fill-rule="nonzero" stroke="#231f20" stroke-width="2" d="M51.2684 58.7374h-8.746v-3.728c0-.552.447-1 1-1h6.746c.552 0 1 .448 1 1z"/><path fill="#fff" fill-rule="nonzero" stroke="#231f20" stroke-width="2" d="M52.8235 76.0746h-11.857v-16.073l2.774-1.364h6.309l2.774 1.364Zm6.1702 23.6422h-20.398v-23.642h17.398c0 1.657 1.343 3 3 3z"/><path fill="none" stroke="#231f20" stroke-linecap="round" stroke-linejoin="round" d="m52.8235 63.7157-2.774-1.363h-1.631m4.405 4.0897-2.774-1.363h-1.631m-7.4515-1.3637 2.774-1.363h1.631m-4.405 4.0897 2.774-1.363h1.631"/><path fill="#fff" fill-rule="nonzero" stroke="#231f20" d="m41.8562 4.9706-2.319 37.525c0 4.063 3.295 7.357 7.358 7.357 4.064 0 7.358-3.294 7.358-7.357l-2.319-37.525Z"/><path fill="#231f20" fill-rule="nonzero" d="m47.3952 4.9706-.5 25.016-.5-25.016Zm2.1995-.0177.5 28.214-1.499-28.179Zm-4.3995.0354-1.5 28.179.501-28.214Z"/><path fill="none" stroke="#231f20" d="M16.7264 75.9356v13.126m38.5663-13.126v13.126"/></g></g><path fill="none" stroke="#231f20" stroke-width="2" d="M63.354 55.1546997v-36l-31.177-18-31.177 18v36l31.177 18z"/></svg>

<svg viewBox="0 0 301 338" xmlns="http://www.w3.org/2000/svg" fill-rule="evenodd" clip-rule="evenodd" stroke-miterlimit="10"><g transform="translate(.5 .06) scale(4.16667)"><path fill="none" d="M0 0h72v81H0z"/><clipPath id="prefix__a"><path d="M0 0h72v81H0z"/></clipPath><g clip-path="url(#prefix__a)"><clipPath id="prefix__b"><path d="M4.823 22.5v36L36 76.5l31.177-18v-36L36 4.5l-31.177 18z" clip-rule="nonzero"/></clipPath><g clip-path="url(#prefix__b)"><path d="M67.177 58.706v-36L36 4.706l-31.177 18v36l31.177 18 31.177-18z" fill="#7f5a90" fill-rule="nonzero" opacity=".3"/><path d="M20.732 58.737h8.746V55.01a1 1 0 00-1-1h-6.746a1 1 0 00-1 1v3.728z" fill="#fff" fill-rule="nonzero" stroke="#231f20" stroke-width="2"/><path d="M20.066 4.97l-2.32 37.526a7.358 7.358 0 0014.717 0L30.143 4.97H20.067z" fill="#fff" fill-rule="nonzero" stroke="#231f20"/><path d="M25.605 4.97l-.5 25.017-.5-25.016h1zM27.804 4.953l.5 28.214-1.499-28.18 1-.034zM23.405 4.988l-1.5 28.18.5-28.215 1 .035z" fill="#231f20" fill-rule="nonzero"/><path d="M19.177 76.075h11.857V60.002l-2.774-1.364h-6.31l-2.773 1.364v16.073zM13.006 99.717h20.398V76.075H16.006a3 3 0 01-3 3v20.642z" fill="#fff" fill-rule="nonzero" stroke="#231f20" stroke-width="2"/><path d="M19.177 63.716l2.774-1.363h1.63M19.177 66.442l2.774-1.363h1.63M31.033 63.716l-2.774-1.363h-1.631M31.033 66.442l-2.774-1.363h-1.631" fill="none" stroke="#231f20" stroke-linecap="round" stroke-linejoin="round"/><path d="M51.268 58.737h-8.746V55.01a1 1 0 011-1h6.746a1 1 0 011 1v3.728z" fill="#fff" fill-rule="nonzero" stroke="#231f20" stroke-width="2"/><path d="M52.824 76.075H40.967V60.002l2.774-1.364h6.309l2.774 1.364v16.073zM58.994 99.717H38.596V76.075h17.398a3 3 0 003 3v20.642z" fill="#fff" fill-rule="nonzero" stroke="#231f20" stroke-width="2"/><path d="M52.824 63.716l-2.774-1.363h-1.631M52.824 66.442L50.05 65.08h-1.631M40.967 63.716l2.774-1.363h1.631M40.967 66.442l2.774-1.363h1.631" fill="none" stroke="#231f20" stroke-linecap="round" stroke-linejoin="round"/><path d="M41.856 4.97l-2.319 37.526a7.358 7.358 0 0014.716 0L51.934 4.97H41.856z" fill="#fff" fill-rule="nonzero" stroke="#231f20"/><path d="M47.395 4.97l-.5 25.017-.5-25.016h1zM49.595 4.953l.5 28.214-1.5-28.18 1-.034zM45.195 4.988l-1.5 28.18.501-28.215 1 .035z" fill="#231f20" fill-rule="nonzero"/><path d="M16.726 75.936v13.126M55.293 75.936v13.126" fill="none" stroke="#231f20"/></g><g><path d="M67.177 58.5v-36L36 4.5l-31.177 18v36L36 76.5l31.177-18z" fill="none" stroke="#231f20" stroke-width="2"/></g></g></g></svg>
